!!!COM: frog-fractions-soundtrack
!!!OTL: rimushotto-bungie-jump
!!!RNB: hooktheoryid: nRPxePW-gb_
**kern	**text
*clefG2	*
*k[]	*
*M4/4	*
=1	=1
8c	C
8c	.
8G	.
[2g	.
8g	.
=2	=2
[4gL	.
8g]J	Dm
8f	.
8e	C
8f	.
8e	Bdim
8f	.
=3	=3
4g	Am
8e	.
4e	.
4d	.
[8e	G
=4	=4
2.e]	.
8e	.
8d	.
=5	=5
4c	C
8e	.
4.d	G
8B	.
8c	.
=6	=6
8d	Dm
8g	.
8f	.
4e	Am
8e	.
8d	Am/E
8e	.
=7	=7
8f	F
4f	.
4f	.
8e	.
8f	.
[8g	.
=8	=8
1g	G
=9	=9
8cc	C
8cc	.
8b	.
[2g	C/G
8g	.
=10	=10
4.g]	G#
8f	A#
8e-	.
8d	.
8c	.
8d	.
=11	=11
4e	Am
8e	.
4f	.
4g	.
[8c	.
=12	=12
4.c]	G#
8c	.
4e-	.
4d	A#
=13	=13
4c	Am
8d	.
[8dL	.
4d]J	G
4A	.
=14	=14
8c	F
8d	.
8e	.
[8eL	.
4e]J	Am
8f	.
8e	.
=15	=15
8.d	F
8.c	.
8A	.
8.f	Am
8.e	.
8d	.
=16	=16
8c	F
8f	.
8e	.
[8gL	.
4g]J	G
8c	.
8d	.
=17	=17
1r	.
*-	*-